X:51
T:Victoria Sett Of Quadrilles No.1. Le4.051
B:L.Leadley MS#4 c1850
Z:Village Music Project, 2016 Steve Mansfield
M:2/4
L:1/8
Q:2/4=60
N:* This staff is shown as the first strain of quadrille #2
N:   in the Mss (No.2 is clearly marked in the left hand margin
N:   at this point by Leadley).
N:  The transcriber has moved it to form the third strain of
N:   quadrille #1 on the basis of key, rhythm, and the form of other
N:   quadrilles in the Victoria Sett and other quadrilles in the Mss.
K:Cmix
cc/c/ cc | ddc z | f/g/a/b/ c'a | gg/a/ gz |
c(c/c/) cc | ddc z | f/g/a/b/ c'(a/f/) | gg/a/ fzH ||
g(g/g/) gg | aag z | f/e/d/c/ Bb | cc/e/ dz |
g(g/g/) gg | aag z | c/d/e/f/ g(e/c/) | d(d/e/) c ||
"*" c | DD/D/ DD | F/E/D/E/ FD | F/E/F/G/ A(G/F/) | A(G/F/) E2 |
DD/D/ DD | F/E/D/E/ FD | f/e/f/g/ a(f/d/) | e/d/e/f/ dz !segno! ||

